polaris-icons/icons/new-icons/ComposeMajor.svg

<svg width="20" height="20" viewBox="0 0 20 20" fill="none" xmlns="http://www.w3.org/2000/svg">
<path d="M14.6659 3.60348C14.8611 3.40822 15.1777 3.40822 15.373 3.60348L16.4337 4.66414C16.6289 4.8594 16.6289 5.17598 16.4337 5.37124L15.4765 6.32836L13.7088 4.56059L14.6659 3.60348Z" fill="#4A4A4A"/>
<path d="M13.0017 5.2677L14.7694 7.03547L10.9388 10.866C10.58 11.2249 10.0982 11.4339 9.59095 11.4507L8.81894 11.4763C8.67442 11.4811 8.55599 11.3627 8.56078 11.2182L8.5864 10.4462C8.60322 9.93897 8.81224 9.45713 9.17108 9.09828L13.0017 5.2677Z" fill="#4A4A4A"/>
<path d="M5 7.24992C5 6.00728 6.00736 4.99992 7.25 4.99992H9.08C9.49421 4.99992 9.83 4.66414 9.83 4.24992C9.83 3.83571 9.49421 3.49992 9.08 3.49992H7.25C5.17893 3.49992 3.5 5.17886 3.5 7.24992V12.7499C3.5 14.821 5.17893 16.4999 7.25 16.4999H12.75C14.8211 16.4999 16.5 14.821 16.5 12.7499V10.9199C16.5 10.5057 16.1642 10.1699 15.75 10.1699C15.3358 10.1699 15 10.5057 15 10.9199V12.7499C15 13.9926 13.9926 14.9999 12.75 14.9999H7.25C6.00736 14.9999 5 13.9926 5 12.7499V7.24992Z" fill="#4A4A4A"/>
</svg>

<svg viewBox="0 0 20 20" xmlns="http://www.w3.org/2000/svg"><path d="M14.666 3.603a.5.5 0 0 1 .707 0l1.06 1.061a.5.5 0 0 1 0 .707l-.957.957-1.767-1.767.957-.958Z" fill="#5C5F62"/><path d="m13.002 5.268 1.767 1.767-3.83 3.831a2 2 0 0 1-1.348.585l-.772.025a.25.25 0 0 1-.258-.258l.025-.772a2 2 0 0 1 .585-1.348l3.83-3.83Z" fill="#5C5F62"/><path d="M5 7.25a2.25 2.25 0 0 1 2.25-2.25h1.83a.75.75 0 1 0 0-1.5h-1.83a3.75 3.75 0 0 0-3.75 3.75v5.5a3.75 3.75 0 0 0 3.75 3.75h5.5a3.75 3.75 0 0 0 3.75-3.75v-1.83a.75.75 0 0 0-1.5 0v1.83a2.25 2.25 0 0 1-2.25 2.25h-5.5a2.25 2.25 0 0 1-2.25-2.25v-5.5Z" fill="#5C5F62"/></svg>
